X: 10
T: the Treach'rous Lovers
R: jig
M: 6/8
L: 1/8
Z: 2011 John Chambers <jc:trillian.mit.edu>
B: William Randall eds "Twenty Four Country Dances", London 1771, p.7
K: Bb
|: d2e  fdB | c2d ecA | B2c dcB | ABc F3  |\
   d2e  fdB | c2d ecA | Bcd FGA | B3  B,3 :|
|: B,DF Bcd | ecB AGF | gfe dcB | cdB AGF |\
   d2e  fdB | c2d ecA | Bgf edc | BcA B3 :|
% - - - - - - - - - - - - - - - - - - - - - - - - -
%%begintext align
%% Cast off 2 Cu. cast up again cross over 2 Cu.
%% lead up to the top cast off set Corners
%% lead outsides
%%endtext
% - - - - - - - - - - - - - - - - - - - - - - - - -

%%sep 1 1 500
%%sep 1 1 500
